src/assets/tabbar/icon-account.svg

<?xml version="1.0" encoding="UTF-8" standalone="no"?>
<svg width="28px" height="28px" viewBox="0 0 28 28" version="1.1" xmlns="http://www.w3.org/2000/svg" xmlns:xlink="http://www.w3.org/1999/xlink">
    <!-- Generator: Sketch 43.2 (39069) - http://www.bohemiancoding.com/sketch -->
    <title>bounds</title>
    <desc>Created with Sketch.</desc>
    <defs></defs>
    <g id="Page-1" stroke="none" stroke-width="1" fill="none" fill-rule="evenodd">
        <g id="account" transform="translate(-1.000000, 0.000000)">
            <g id="Group" transform="translate(1.000000, 5.000000)" stroke="#000000" stroke-opacity="0.58" stroke-width="0.75" stroke-linecap="round" stroke-linejoin="round">
                <path d="M25.0958601,16.7994698 L2.90413988,16.7994698 C1.83034697,16.7994698 0.756554056,15.9245275 0.756554056,14.6996081 L0.756554056,2.80039185 C0.756554056,1.750461 1.65138148,0.700530153 2.90413988,0.700530153 L25.0958601,0.700530153 C26.169653,0.700530153 27.2434459,1.57547253 27.2434459,2.80039185 L27.2434459,14.8745966 C27.0644805,15.9245275 26.169653,16.7994698 25.0958601,16.7994698 L25.0958601,16.7994698 Z" id="Shape"></path>
                <ellipse id="Oval" cx="13.642069" cy="5.42521898" rx="2.5055168" ry="2.44983865"></ellipse>
                <path d="M8.63103543,15.0495851 C8.63103543,12.424758 10.7786213,10.3248963 13.4631035,10.3248963 C16.1475858,10.3248963 18.2951717,12.424758 18.2951717,15.0495851" id="Shape"></path>
            </g>
            <rect id="bounds" fill="#FFFFFF" opacity="0" x="0" y="0" width="28" height="28"></rect>
        </g>
    </g>
</svg>

<svg width="28" height="28" xmlns="http://www.w3.org/2000/svg"><g transform="translate(0 5)" stroke="#000" stroke-opacity=".58" stroke-width=".75" stroke-linecap="round" stroke-linejoin="round" fill="none" fill-rule="evenodd"><path d="M25.096 16.8H2.904c-1.074 0-2.147-.875-2.147-2.1V2.8c0-1.05.894-2.1 2.147-2.1h22.192c1.074 0 2.147.875 2.147 2.1v12.075c-.179 1.05-1.073 1.924-2.147 1.924h0z"/><ellipse cx="13.642" cy="5.425" rx="2.506" ry="2.45"/><path d="M8.631 15.05c0-2.625 2.148-4.725 4.832-4.725 2.685 0 4.832 2.1 4.832 4.725"/></g></svg>
